packages/kaspersky-hexa-ui-icons/src/iconsSVGs/16/MicrosoftEdgeColor.svg

<svg width="16" height="16" viewBox="0 0 16 16" fill="none" xmlns="http://www.w3.org/2000/svg">
<g clip-path="url(#clip0_21654_2225)">
<path d="M13.9045 11.583C13.7089 11.6853 13.5073 11.7754 13.3006 11.8528C12.6429 12.0989 11.9461 12.2243 11.2439 12.2229C8.53283 12.2229 6.17126 10.3581 6.17126 7.96503C6.17473 7.64406 6.2638 7.32983 6.42927 7.05478C6.59475 6.77973 6.83063 6.55383 7.11256 6.40039C4.66048 6.50352 4.03027 9.05872 4.03027 10.5558C4.03027 14.7885 7.93126 15.2176 8.77173 15.2176C9.22491 15.2176 9.9084 15.0858 10.3186 14.9563L10.3937 14.9311C11.9722 14.3854 13.3179 13.3185 14.2093 11.9061C14.2366 11.8631 14.2488 11.8122 14.2439 11.7615C14.2391 11.7108 14.2175 11.6631 14.1825 11.6261C14.1475 11.589 14.1012 11.5647 14.0509 11.5569C14.0005 11.5491 13.949 11.5582 13.9045 11.583Z" fill="url(#paint0_linear_21654_2225)"/>
<path opacity="0.35" d="M13.9045 11.583C13.7089 11.6853 13.5073 11.7754 13.3006 11.8528C12.6429 12.0989 11.9461 12.2243 11.2439 12.2229C8.53283 12.2229 6.17126 10.3581 6.17126 7.96503C6.17473 7.64406 6.2638 7.32983 6.42927 7.05478C6.59475 6.77973 6.83063 6.55383 7.11256 6.40039C4.66048 6.50352 4.03027 9.05872 4.03027 10.5558C4.03027 14.7885 7.93126 15.2176 8.77173 15.2176C9.22491 15.2176 9.9084 15.0858 10.3186 14.9563L10.3937 14.9311C11.9722 14.3854 13.3179 13.3185 14.2093 11.9061C14.2366 11.8631 14.2488 11.8122 14.2439 11.7615C14.2391 11.7108 14.2175 11.6631 14.1825 11.6261C14.1475 11.589 14.1012 11.5647 14.0509 11.5569C14.0005 11.5491 13.949 11.5582 13.9045 11.583Z" fill="url(#paint1_radial_21654_2225)"/>
<path d="M6.72332 14.4977C6.21231 14.1805 5.76946 13.7649 5.42051 13.275C5.02278 12.7301 4.74909 12.1048 4.61863 11.4429C4.48817 10.781 4.5041 10.0986 4.6653 9.44354C4.82651 8.78846 5.12908 8.17658 5.5518 7.65082C5.97452 7.12507 6.50715 6.69816 7.11233 6.40005C7.29108 6.31583 7.59645 6.16343 8.00264 6.17088C8.28882 6.17296 8.57063 6.24129 8.82598 6.37051C9.08133 6.49972 9.30329 6.68632 9.47447 6.91567C9.70582 7.22458 9.83338 7.59883 9.83884 7.98473C9.83884 7.9727 11.2402 3.42432 5.25551 3.42432C2.7404 3.42432 0.672174 5.81109 0.672174 7.9051C0.662253 9.0128 0.899263 10.1088 1.36598 11.1134C2.12872 12.7408 3.46254 14.0315 5.11416 14.7403C6.76579 15.4491 8.6202 15.5266 10.3252 14.9583C9.72824 15.1465 9.09751 15.203 8.47656 15.1239C7.8556 15.0448 7.2592 14.8319 6.72848 14.4999L6.72332 14.4977Z" fill="url(#paint2_linear_21654_2225)"/>
<path opacity="0.41" d="M6.72332 14.4977C6.21231 14.1805 5.76946 13.7649 5.42051 13.275C5.02278 12.7301 4.74909 12.1048 4.61863 11.4429C4.48817 10.781 4.5041 10.0986 4.6653 9.44354C4.82651 8.78846 5.12908 8.17658 5.5518 7.65082C5.97452 7.12507 6.50715 6.69816 7.11233 6.40005C7.29108 6.31583 7.59645 6.16343 8.00264 6.17088C8.28882 6.17296 8.57063 6.24129 8.82598 6.37051C9.08133 6.49972 9.30329 6.68632 9.47447 6.91567C9.70582 7.22458 9.83338 7.59883 9.83884 7.98473C9.83884 7.9727 11.2402 3.42432 5.25551 3.42432C2.7404 3.42432 0.672174 5.81109 0.672174 7.9051C0.662253 9.0128 0.899263 10.1088 1.36598 11.1134C2.12872 12.7408 3.46254 14.0315 5.11416 14.7403C6.76579 15.4491 8.6202 15.5266 10.3252 14.9583C9.72824 15.1465 9.09751 15.203 8.47656 15.1239C7.8556 15.0448 7.2592 14.8319 6.72848 14.4999L6.72332 14.4977Z" fill="url(#paint3_radial_21654_2225)"/>
<path d="M9.39326 9.19494C9.34685 9.2551 9.20419 9.33817 9.20419 9.51921C9.20419 9.66874 9.30159 9.81255 9.47461 9.93343C10.2985 10.5063 11.8516 10.4307 11.8556 10.4307C12.4661 10.4293 13.065 10.2641 13.5899 9.95234C14.1194 9.64317 14.5588 9.20093 14.8646 8.66949C15.1704 8.13806 15.332 7.5359 15.3333 6.92275C15.3482 5.63885 14.8749 4.7852 14.6836 4.40708C13.4696 2.03234 10.849 0.666504 7.99935 0.666504C6.07216 0.666313 4.22236 1.42476 2.85002 2.7778C1.47768 4.13084 0.693117 5.96972 0.666016 7.89671C0.693516 5.80328 2.77435 4.1126 5.24935 4.1126C5.44987 4.1126 6.59341 4.13208 7.6556 4.68953C8.59174 5.18109 9.08216 5.77463 9.42305 6.36301C9.77711 6.97432 9.84013 7.74661 9.84013 8.05427C9.84013 8.36192 9.68315 8.81796 9.39326 9.19494Z" fill="url(#paint4_radial_21654_2225)"/>
<path d="M9.39326 9.19494C9.34685 9.2551 9.20419 9.33817 9.20419 9.51921C9.20419 9.66874 9.30159 9.81255 9.47461 9.93343C10.2985 10.5063 11.8516 10.4307 11.8556 10.4307C12.4661 10.4293 13.065 10.2641 13.5899 9.95234C14.1194 9.64317 14.5588 9.20093 14.8646 8.66949C15.1704 8.13806 15.332 7.5359 15.3333 6.92275C15.3482 5.63885 14.8749 4.7852 14.6836 4.40708C13.4696 2.03234 10.849 0.666504 7.99935 0.666504C6.07216 0.666313 4.22236 1.42476 2.85002 2.7778C1.47768 4.13084 0.693117 5.96972 0.666016 7.89671C0.693516 5.80328 2.77435 4.1126 5.24935 4.1126C5.44987 4.1126 6.59341 4.13208 7.6556 4.68953C8.59174 5.18109 9.08216 5.77463 9.42305 6.36301C9.77711 6.97432 9.84013 7.74661 9.84013 8.05427C9.84013 8.36192 9.68315 8.81796 9.39326 9.19494Z" fill="url(#paint5_radial_21654_2225)"/>
</g>
<defs>
<linearGradient id="paint0_linear_21654_2225" x1="4.03027" y1="10.8101" x2="14.2477" y2="10.8101" gradientUnits="userSpaceOnUse">
<stop stop-color="#0C59A4"/>
<stop offset="1" stop-color="#114A8B"/>
</linearGradient>
<radialGradient id="paint1_radial_21654_2225" cx="0" cy="0" r="1" gradientUnits="userSpaceOnUse" gradientTransform="translate(9.6735 10.8907) scale(5.46448 5.19126)">
<stop offset="0.72" stop-opacity="0"/>
<stop offset="0.95" stop-opacity="0.53"/>
<stop offset="1"/>
</radialGradient>
<linearGradient id="paint2_linear_21654_2225" x1="9.4166" y1="6.3777" x2="3.03488" y2="13.3289" gradientUnits="userSpaceOnUse">
<stop stop-color="#1B9DE2"/>
<stop offset="0.16" stop-color="#1595DF"/>
<stop offset="0.67" stop-color="#0680D7"/>
<stop offset="1" stop-color="#0078D4"/>
</linearGradient>
<radialGradient id="paint3_radial_21654_2225" cx="0" cy="0" r="1" gradientTransform="matrix(1.23097 -8.12439 -6.56517 -0.984775 4.71035 12.0678)" gradientUnits="userSpaceOnUse">
<stop offset="0.76" stop-opacity="0"/>
<stop offset="0.95" stop-opacity="0.5"/>
<stop offset="1"/>
</radialGradient>
<radialGradient id="paint4_radial_21654_2225" cx="0" cy="0" r="1" gradientTransform="matrix(-0.463902 11.5976 24.7028 0.927804 2.14772 3.3808)" gradientUnits="userSpaceOnUse">
<stop stop-color="#35C1F1"/>
<stop offset="0.11" stop-color="#34C1ED"/>
<stop offset="0.23" stop-color="#2FC2DF"/>
<stop offset="0.31" stop-color="#2BC3D2"/>
<stop offset="0.67" stop-color="#36C752"/>
</radialGradient>
<radialGradient id="paint5_radial_21654_2225" cx="0" cy="0" r="1" gradientTransform="matrix(1.5615 5.3537 4.34988 -1.28266 14.4202 5.10123)" gradientUnits="userSpaceOnUse">
<stop stop-color="#66EB6E"/>
<stop offset="1" stop-color="#66EB6E" stop-opacity="0"/>
</radialGradient>
<clipPath id="clip0_21654_2225">
<rect width="16" height="16" fill="white"/>
</clipPath>
</defs>
</svg>

<svg xmlns="http://www.w3.org/2000/svg" width="16" height="16" fill="none" viewBox="0 0 16 16"><g clip-path="url(#a)"><path fill="url(#b)" d="M13.9045 11.583a5.4 5.4 0 0 1-.6039.2698 5.84 5.84 0 0 1-2.0567.3701c-2.711 0-5.0726-1.8648-5.0726-4.2579a1.804 1.804 0 0 1 .9413-1.5646c-2.4521.1031-3.0823 2.6583-3.0823 4.1554 0 4.2327 3.901 4.6618 4.7414 4.6618.4532 0 1.1367-.1318 1.5469-.2613l.0751-.0252a7.353 7.353 0 0 0 3.8156-3.025.229.229 0 0 0-.0268-.28.229.229 0 0 0-.278-.0431"/><path fill="url(#c)" d="M6.7233 14.4977a4.54 4.54 0 0 1-1.3028-1.2227A4.6243 4.6243 0 0 1 7.1123 6.4c.1788-.0842.4841-.2366.8903-.2291a1.853 1.853 0 0 1 1.4719.7448c.2313.3089.3589.6831.3643 1.069 0-.012 1.4014-4.5604-4.5833-4.5604-2.5151 0-4.5833 2.3868-4.5833 4.4808a7.46 7.46 0 0 0 .6938 3.2083 7.3335 7.3335 0 0 0 8.9592 3.8449 4.329 4.329 0 0 1-3.5967-.4584z"/><path fill="url(#d)" d="M9.3933 9.195c-.0465.0601-.1891.1432-.1891.3242 0 .1495.0974.2934.2704.4142.8239.5729 2.377.4973 2.381.4973a3.41 3.41 0 0 0 1.7343-.4784 3.516 3.516 0 0 0 1.7434-3.0295c.0149-1.284-.4584-2.1376-.6497-2.5157C13.4696 2.0323 10.849.6665 7.9994.6665A7.3333 7.3333 0 0 0 .666 7.8967c.0275-2.0934 2.1084-3.7841 4.5833-3.7841.2006 0 1.3441.0195 2.4063.577.9361.4915 1.4266 1.085 1.7675 1.6734.354.6113.417 1.3836.417 1.6913 0 .3076-.157.7637-.4468 1.1406"/><path fill="url(#e)" d="M9.3933 9.195c-.0465.0601-.1891.1432-.1891.3242 0 .1495.0974.2934.2704.4142.8239.5729 2.377.4973 2.381.4973a3.41 3.41 0 0 0 1.7343-.4784 3.516 3.516 0 0 0 1.7434-3.0295c.0149-1.284-.4584-2.1376-.6497-2.5157C13.4696 2.0323 10.849.6665 7.9994.6665A7.3333 7.3333 0 0 0 .666 7.8967c.0275-2.0934 2.1084-3.7841 4.5833-3.7841.2006 0 1.3441.0195 2.4063.577.9361.4915 1.4266 1.085 1.7675 1.6734.354.6113.417 1.3836.417 1.6913 0 .3076-.157.7637-.4468 1.1406"/></g><defs><radialGradient id="d" cx="0" cy="0" r="1" gradientTransform="matrix(-.4639 11.5976 24.7028 .9278 2.148 3.38)" gradientUnits="userSpaceOnUse"><stop stop-color="#35c1f1"/><stop offset="0" stop-color="#34c1ed"/><stop offset="0" stop-color="#2fc2df"/><stop offset="0" stop-color="#2bc3d2"/><stop offset="1" stop-color="#36c752"/></radialGradient><radialGradient id="e" cx="0" cy="0" r="1" gradientTransform="matrix(1.5615 5.3537 4.34988 -1.28266 14.42 5.101)" gradientUnits="userSpaceOnUse"><stop stop-color="#66eb6e"/><stop offset="1" stop-color="#66eb6e" stop-opacity="0"/></radialGradient><linearGradient id="b" x1="4" x2="14" y1="11" y2="11" gradientUnits="userSpaceOnUse"><stop stop-color="#0c59a4"/><stop offset="1" stop-color="#114a8b"/></linearGradient><linearGradient id="c" x1="9" x2="3" y1="6" y2="13" gradientUnits="userSpaceOnUse"><stop stop-color="#1b9de2"/><stop offset="0" stop-color="#1595df"/><stop offset="1" stop-color="#0680d7"/><stop offset="1" stop-color="#0078d4"/></linearGradient><clipPath id="a"><path fill="#fff" d="M0 0h16v16H0z"/></clipPath></defs></svg>
